dist/assets/bar_chart.svg

<svg xmlns="http://www.w3.org/2000/svg" width="16" height="16" fill="none"><path fill="#1C4980" d="M0 16V5h4v11H0Zm6 0V0h4v16H6Zm6 0V9h4v7h-4Z"/></svg>

<svg width="16" height="16" viewBox="0 0 16 16" fill="none" xmlns="http://www.w3.org/2000/svg">
<path id="bar_chart" d="M0 16V5H4V16H0ZM6 16V0H10V16H6ZM12 16V9H16V16H12Z" fill="#1C4980"/>
</svg>
